build/img/call-modal-img.svg

<svg width="192" height="372" viewBox="0 0 192 372" fill="none" xmlns="http://www.w3.org/2000/svg">
<path d="M3 192.5C3 192.5 40.5367 212 93 212C145.463 212 189 192.5 189 192.5" stroke="#A19B9B" stroke-width="5" stroke-linecap="round" stroke-linejoin="round"/>
<path d="M16.5 220C16.5 220 47.7454 236 93 236C138.255 236 171.5 220 171.5 220" stroke="#A19B9B" stroke-width="4" stroke-linecap="round" stroke-linejoin="round"/>
<path d="M50.5 245C50.5 245 59.7599 255 93 255C126.24 255 134.5 248.5 134.5 248.5" stroke="#A19B9B" stroke-width="3" stroke-linecap="round" stroke-linejoin="round"/>
<path d="M66.4193 354.653L74.7131 338.264C76.3684 335.01 80.4602 333.756 83.8344 335.474L92.0804 339.67C92.402 339.325 92.7343 338.966 93.083 338.586C96.2945 335.126 100.689 330.386 104.488 322.873C108.3 315.343 109.521 308.979 110.417 304.332C110.511 303.84 110.6 303.366 110.693 302.913L105.16 300.103L102.438 298.715C99.0592 296.995 97.6578 292.942 99.305 289.683L107.598 273.293C109.247 270.037 113.34 268.782 116.72 270.503L121.339 272.871L121.275 272.996C122.927 274.106 124.463 275.507 125.793 277.124C127.037 278.67 128.003 280.218 128.744 281.843C134.792 294.84 132.662 309.22 121.402 331.467C105.837 362.217 86.6161 366.556 85.7836 366.733C83.9629 367.096 82.1467 367.224 80.2232 367.118C78.1554 366.999 76.1232 366.584 74.2565 365.904L74.2026 365.996L69.5531 363.691C66.1793 361.969 64.7745 357.916 66.4193 354.653Z" fill="#A19B9B"/>
<path d="M77.8646 63.6655C76.8646 60.1655 73.8646 17.1655 93.3646 8.16553" stroke="#A19B9B" stroke-width="2" stroke-linecap="round"/>
<path d="M79.4999 64C77.602 60.8938 62.5509 20.8779 78.9416 6.99999" stroke="#A19B9B" stroke-width="2" stroke-linecap="round"/>
<path d="M75.9998 64C73.2961 61.5628 51.0407 26.0425 62.8016 8.07224" stroke="#A19B9B" stroke-width="2" stroke-linecap="round"/>
<path d="M55.9329 64.4083C58.3893 65.0389 61.753 65.6739 65.9385 65.9337C74.6615 66.4751 86.9062 65.3837 101.894 59.2854C100.644 66.9225 99.8828 74.9876 100.367 82.2088C100.923 90.5034 103.157 98.2007 108.77 102.577L109.312 103H110C117.057 103 123.428 106.406 128.536 112.025C133.652 117.653 137.416 125.424 139.167 133.845C142.678 150.735 138.019 169.549 121.047 178.741C102.362 188.863 85.057 188.824 71.6714 184.454C58.1666 180.045 48.8101 171.299 45.8442 164.227C41.3592 153.532 39.9631 143.328 41.8827 134.253C43.7945 125.215 49.0314 117.115 58.1582 110.63C62.6481 107.44 64.3686 102.382 64.6287 97.041C64.8882 91.7106 63.7201 85.8003 62.1177 80.3827C60.508 74.9404 58.4194 69.8625 56.7404 66.156C56.4587 65.5341 56.1882 64.95 55.9329 64.4083Z" stroke="#A19B9B" stroke-width="4" stroke-linecap="round"/>
<circle cx="67.2705" cy="130.271" r="2.5" transform="rotate(-22.6791 67.2705 130.271)" fill="#A19B9B"/>
<circle cx="101.004" cy="124.004" r="2.5" transform="rotate(13.1776 101.004 124.004)" fill="#A19B9B"/>
<path d="M78.8214 161.159C89.3359 169.542 106.341 164.375 108 151" stroke="#A19B9B" stroke-width="2" stroke-linecap="round" stroke-linejoin="round"/>
<path d="M52.9999 61C62.6665 56.3334 83.8999 48.9 103.5 56.5" stroke="#A19B9B" stroke-width="2" stroke-linecap="round"/>
<path d="M79.2099 128.049C79.6655 129.139 79.7352 129.928 79.6176 130.519C79.5022 131.1 79.1825 131.612 78.6219 132.112C78.0475 132.625 77.2535 133.094 76.2573 133.572C75.436 133.966 74.5276 134.344 73.5449 134.752C73.3363 134.839 73.1245 134.927 72.9094 135.017C72.6943 135.107 72.4827 135.196 72.2746 135.283C71.2934 135.695 70.3866 136.077 69.5289 136.384C68.4887 136.757 67.5968 136.992 66.8285 137.04C66.0787 137.088 65.4895 136.955 64.9955 136.629C64.4919 136.297 63.9799 135.694 63.5243 134.604C61.7143 130.272 63.7583 125.293 68.0897 123.483C72.4212 121.673 77.3998 123.717 79.2099 128.049Z" stroke="#A19B9B" stroke-width="2"/>
<path d="M112.271 123.866C112.492 125.027 112.398 125.813 112.162 126.367C111.929 126.912 111.511 127.347 110.86 127.721C110.192 128.105 109.318 128.401 108.245 128.664C107.36 128.881 106.394 129.063 105.348 129.261C105.126 129.303 104.901 129.345 104.672 129.389C104.443 129.433 104.217 129.476 103.996 129.519C102.951 129.721 101.985 129.907 101.082 130.031C99.9877 130.182 99.0665 130.229 98.3046 130.118C97.5611 130.01 97.0118 129.76 96.5954 129.339C96.1708 128.911 95.794 128.215 95.5723 127.054C94.692 122.443 97.7163 117.991 102.327 117.111C106.939 116.23 111.39 119.255 112.271 123.866Z" stroke="#A19B9B" stroke-width="2"/>
<circle cx="98.4999" cy="8.5" r="4.5" fill="#A19B9B" stroke="#A19B9B" stroke-width="2"/>
<circle cx="83.4999" cy="8.5" r="4.5" fill="#A19B9B" stroke="#A19B9B" stroke-width="2"/>
<circle cx="67.4999" cy="5.5" r="4.5" fill="#A19B9B" stroke="#A19B9B" stroke-width="2"/>
<path d="M97.0311 96.8949C98.1786 100.703 98.0799 104.1 96.8105 104.483C95.5412 104.865 95.7049 101.909 94.5574 98.1014C93.4098 94.2934 91.3856 91.075 92.655 90.6925C93.9243 90.31 95.8836 93.0869 97.0311 96.8949Z" fill="#A19B9B"/>
<path d="M57.0981 159.609C58.7969 164.044 61.722 166.711 60.0959 167.333C58.4698 167.956 55.7745 164.866 54.0758 160.431C52.3771 155.996 52.3182 151.896 53.9443 151.274C55.5704 150.651 55.3994 155.174 57.0981 159.609Z" fill="#A19B9B"/>
</svg>

<svg width="192" height="372" fill="none" xmlns="http://www.w3.org/2000/svg"><path d="M3 192.5S40.537 212 93 212s96-19.5 96-19.5" stroke="#A19B9B" stroke-width="5" stroke-linecap="round" stroke-linejoin="round"/><path d="M16.5 220s31.245 16 76.5 16c45.255 0 78.5-16 78.5-16" stroke="#A19B9B" stroke-width="4" stroke-linecap="round" stroke-linejoin="round"/><path d="M50.5 245s9.26 10 42.5 10 41.5-6.5 41.5-6.5" stroke="#A19B9B" stroke-width="3" stroke-linecap="round" stroke-linejoin="round"/><path d="M66.42 354.653l8.293-16.389c1.655-3.254 5.747-4.508 9.121-2.79l8.246 4.196c.322-.345.654-.704 1.003-1.084 3.212-3.46 7.606-8.2 11.405-15.713 3.812-7.53 5.033-13.894 5.929-18.541.094-.492.183-.966.276-1.419l-5.533-2.81-2.722-1.388c-3.379-1.72-4.78-5.773-3.133-9.032l8.293-16.39c1.649-3.256 5.742-4.511 9.122-2.79l4.619 2.368-.064.125a21.214 21.214 0 0 1 4.518 4.128c1.244 1.546 2.21 3.094 2.951 4.719 6.048 12.997 3.918 27.377-7.342 49.624-15.565 30.75-34.786 35.089-35.618 35.266-1.821.363-3.637.491-5.56.385a21.06 21.06 0 0 1-5.968-1.214l-.053.092-4.65-2.305c-3.374-1.722-4.778-5.775-3.134-9.038z" fill="#A19B9B"/><path d="M77.865 63.666c-1-3.5-4-46.5 15.5-55.5M79.5 64c-1.898-3.106-16.95-43.122-.558-57M76 64c-2.704-2.437-24.96-37.957-13.198-55.928" stroke="#A19B9B" stroke-width="2" stroke-linecap="round"/><path d="M55.933 64.408c2.456.63 5.82 1.266 10.006 1.526 8.723.541 20.967-.55 35.955-6.649-1.25 7.638-2.011 15.703-1.527 22.924.556 8.294 2.79 15.992 8.403 20.368l.542.423H110c7.057 0 13.428 3.406 18.536 9.025 5.116 5.628 8.88 13.399 10.631 21.82 3.511 16.89-1.148 35.704-18.12 44.896-18.685 10.122-35.99 10.083-49.376 5.713-13.504-4.409-22.86-13.155-25.827-20.227-4.485-10.695-5.88-20.899-3.961-29.974 1.911-9.038 7.148-17.138 16.275-23.623 4.49-3.19 6.21-8.248 6.47-13.589.26-5.33-.908-11.24-2.51-16.658-1.61-5.443-3.699-10.52-5.378-14.227-.281-.622-.552-1.206-.807-1.748z" stroke="#A19B9B" stroke-width="4" stroke-linecap="round"/><circle cx="67.27" cy="130.271" r="2.5" transform="rotate(-22.68 67.27 130.271)" fill="#A19B9B"/><circle cx="101.004" cy="124.004" r="2.5" transform="rotate(13.178 101.004 124.004)" fill="#A19B9B"/><path d="M78.821 161.159c10.515 8.383 27.52 3.216 29.179-10.159" stroke="#A19B9B" stroke-width="2" stroke-linecap="round" stroke-linejoin="round"/><path d="M53 61c9.666-4.667 30.9-12.1 50.5-4.5" stroke="#A19B9B" stroke-width="2" stroke-linecap="round"/><path d="M79.21 128.049c.456 1.09.525 1.879.408 2.47-.116.581-.435 1.093-.996 1.593-.575.513-1.368.982-2.365 1.46-.821.394-1.73.772-2.712 1.18l-.636.265-.634.266c-.982.412-1.888.794-2.746 1.101-1.04.373-1.932.608-2.7.656-.75.048-1.34-.085-1.833-.411-.504-.332-1.016-.935-1.472-2.025a8.5 8.5 0 0 1 15.686-6.555zM112.271 123.866c.221 1.161.127 1.947-.109 2.501-.233.545-.651.98-1.302 1.354-.668.384-1.542.68-2.615.943-.885.217-1.851.399-2.897.597l-.676.128-.676.13c-1.045.202-2.011.388-2.914.512-1.094.151-2.015.198-2.777.087-.744-.108-1.293-.358-1.71-.779-.424-.428-.801-1.124-1.023-2.285a8.5 8.5 0 0 1 16.699-3.188z" stroke="#A19B9B" stroke-width="2"/><circle cx="98.5" cy="8.5" r="4.5" fill="#A19B9B" stroke="#A19B9B" stroke-width="2"/><circle cx="83.5" cy="8.5" r="4.5" fill="#A19B9B" stroke="#A19B9B" stroke-width="2"/><circle cx="67.5" cy="5.5" r="4.5" fill="#A19B9B" stroke="#A19B9B" stroke-width="2"/><path d="M97.031 96.895c1.148 3.808 1.049 7.205-.22 7.588-1.27.382-1.106-2.574-2.254-6.382-1.147-3.808-3.171-7.026-1.902-7.409 1.27-.382 3.229 2.395 4.376 6.203zM57.098 159.609c1.699 4.435 4.624 7.102 2.998 7.724-1.626.623-4.321-2.467-6.02-6.902-1.699-4.435-1.758-8.535-.132-9.157 1.626-.623 1.455 3.9 3.154 8.335z" fill="#A19B9B"/></svg>
